X:213
T:Man Who Shot the Windmill
Z: id:dc-reel-391
M:C
L:1/8
K:D Major
A|F2ED FAA2|FAfe dBBA|F2ED FABc|dBAF E3F|!
D2B,A, B,EE2|FEDE FAfe|dBBA B2bf|afec|dBB:|!
A|F2AF A2FA|A2fe dBBA|F2AF ABBA|dBAF E3F|!
D2B,A, B,EE2|FEDE FAfe|dBBA B2bf|afec|dBB:|!


